gama.ui.shared/icons_svg/light/navigator/folder.test.svg

<svg height="24.75" viewBox="-679.718 -3462.991 24.75 24.75" width="24.75" xmlns="http://www.w3.org/2000/svg"><g fill="none"><path d="m-678.1434-3456.67 10.08-.48 2.4 3.36 9.12.72v13.44h-21.6z" fill="#fff"/><path d="m-676.3434-3456.6156c-.9941 0-1.8.8059-1.8 1.8v13.2c0 .9942.8059 1.8 1.8 1.8h18c.9941 0 1.8-.8058 1.8-1.8v-9.6c0-.9941-.8059-1.8-1.8-1.8h-6.6c-1.3255 0-2.4-1.0744-2.4-2.4 0-.6627-.53726-1.2-1.2-1.2zm0-1.2h7.8c1.3255 0 2.4 1.0746 2.4 2.4 0 .6626.5373 1.2 1.2 1.2h6.6c1.6569 0 3 1.3432 3 3v9.6c0 1.6569-1.3431 3.0001-3 3.0001h-18c-1.6569 0-3-1.3432-3-3.0001v-13.2c0-1.6568 1.3431-3 3-3z" fill="#64727e"/><path d="m-669.1629-3443.542-2.3674-2.731-.8061.9236 3.1735 3.661 6.8125-7.859-.8005-.9236z" fill="#63727e"/><path d="m-669.1629-3443.542-2.3674-2.731-.8061.9236 3.1735 3.661 6.8125-7.859-.8005-.9236z"/></g></svg>

<?xml version="1.0" encoding="UTF-8" standalone="no"?>
<!DOCTYPE svg PUBLIC "-//W3C//DTD SVG 1.1//EN" "http://www.w3.org/Graphics/SVG/1.1/DTD/svg11.dtd">
<svg xmlns:xl="http://www.w3.org/1999/xlink" version="1.1" xmlns="http://www.w3.org/2000/svg" xmlns:dc="http://purl.org/dc/elements/1.1/" viewBox="-679.7184 -3462.9906 24.750035 24.750025" width="24.750035" height="24.750025">
  <defs/>
  <g id="SOURCES" fill-opacity="1" stroke-dasharray="none" fill="none" stroke="none" stroke-opacity="1">
    <title>SOURCES</title>
    <g id="SOURCES_Light">
      <title>Light</title>
      <g id="Graphic_12622"/>
      <g id="Graphic_12621">
        <path d="M -678.1434 -3456.67 L -668.0634 -3457.15 L -665.6634 -3453.79 L -656.5434 -3453.07 L -656.5434 -3439.63 L -678.1434 -3439.63 Z" fill="white"/>
      </g>
      <g id="Graphic_12620">
        <path d="M -676.3434 -3456.6156 C -677.3375 -3456.6156 -678.1434 -3455.8097 -678.1434 -3454.8156 L -678.1434 -3441.6156 C -678.1434 -3440.6214 -677.3375 -3439.8156 -676.3434 -3439.8156 L -658.3434 -3439.8156 C -657.3493 -3439.8156 -656.5434 -3440.6214 -656.5434 -3441.6156 L -656.5434 -3451.2156 C -656.5434 -3452.2097 -657.3493 -3453.0156 -658.3434 -3453.0156 L -664.9434 -3453.0156 C -666.2689 -3453.0156 -667.3434 -3454.09 -667.3434 -3455.4156 C -667.3434 -3456.0783 -667.88066 -3456.6156 -668.5434 -3456.6156 Z M -676.3434 -3457.8156 L -668.5434 -3457.8156 C -667.2179 -3457.8156 -666.1434 -3456.741 -666.1434 -3455.4156 C -666.1434 -3454.753 -665.6061 -3454.2156 -664.9434 -3454.2156 L -658.3434 -3454.2156 C -656.6865 -3454.2156 -655.3434 -3452.8724 -655.3434 -3451.2156 L -655.3434 -3441.6156 C -655.3434 -3439.9587 -656.6865 -3438.6155 -658.3434 -3438.6155 L -676.3434 -3438.6155 C -678.0003 -3438.6155 -679.3434 -3439.9587 -679.3434 -3441.6156 L -679.3434 -3454.8156 C -679.3434 -3456.4724 -678.0003 -3457.8156 -676.3434 -3457.8156 Z" fill="#64727e"/>
      </g>
      <g id="Graphic_12636">
        <path d="M -669.1629 -3443.542 L -671.5303 -3446.273 L -672.3364 -3445.3494 L -669.1629 -3441.6884 L -662.3504 -3449.5474 L -663.1509 -3450.471 Z" fill="#63727e"/>
        <path d="M -669.1629 -3443.542 L -671.5303 -3446.273 L -672.3364 -3445.3494 L -669.1629 -3441.6884 L -662.3504 -3449.5474 L -663.1509 -3450.471 Z" stroke="white" stroke-linecap="round" stroke-linejoin="round" stroke-width="0"/>
      </g>
    </g>
  </g>
</svg>
